icons/social_distancing.svg

<svg width="48" height="48" viewBox="0 0 48 48" fill="none" xmlns="http://www.w3.org/2000/svg">
<path d="M11.5372 10.2926C11.9277 10.6832 11.9277 11.3163 11.5372 11.7069L10.2442 12.9998H37.7557L36.4628 11.7069C36.0723 11.3164 36.0723 10.6832 36.4628 10.2927C36.8533 9.9022 37.4865 9.9022 37.877 10.2927L39.9983 12.414C40.7794 13.1951 40.7794 14.4614 39.9983 15.2425L37.877 17.3638C37.4865 17.7543 36.8533 17.7543 36.4628 17.3638C36.0723 16.9733 36.0723 16.3401 36.4628 15.9496L37.4125 14.9998H10.5875L11.5372 15.9495C11.9277 16.34 11.9277 16.9732 11.5372 17.3637C11.1467 17.7542 10.5135 17.7542 10.123 17.3637L8.00165 15.2424C7.2206 14.4613 7.2206 13.195 8.00165 12.414L10.123 10.2926C10.5135 9.90212 11.1467 9.90212 11.5372 10.2926Z" fill="black"/>
<path fill-rule="evenodd" clip-rule="evenodd" d="M15 25.4998C15 27.4336 13.4338 28.9998 11.5 28.9998C9.56625 28.9998 8 27.4336 8 25.4998C8 23.5661 9.56625 21.9998 11.5 21.9998C13.4338 21.9998 15 23.5661 15 25.4998ZM11.5 26.9998C12.3292 26.9998 13 26.329 13 25.4998C13 24.6707 12.3292 23.9998 11.5 23.9998C10.6708 23.9998 10 24.6707 10 25.4998C10 26.329 10.6708 26.9998 11.5 26.9998Z" fill="black"/>
<path fill-rule="evenodd" clip-rule="evenodd" d="M4 34.2665C4 31.4292 8.99687 29.9998 11.5 29.9998C14.0031 29.9998 19 31.4292 19 34.2665V37.9998H4V34.2665ZM6 34.2665C6 34.1402 6.16831 33.5602 7.64082 32.8891C8.94299 32.2955 10.5352 31.9998 11.5 31.9998C12.4648 31.9998 14.057 32.2955 15.3592 32.8891C16.8317 33.5602 17 34.1402 17 34.2665V35.9998H6V34.2665Z" fill="black"/>
<path fill-rule="evenodd" clip-rule="evenodd" d="M40 25.4998C40 27.4336 38.4338 28.9998 36.5 28.9998C34.5662 28.9998 33 27.4336 33 25.4998C33 23.5661 34.5662 21.9998 36.5 21.9998C38.4338 21.9998 40 23.5661 40 25.4998ZM36.5 26.9998C37.3292 26.9998 38 26.329 38 25.4998C38 24.6707 37.3292 23.9998 36.5 23.9998C35.6708 23.9998 35 24.6707 35 25.4998C35 26.329 35.6708 26.9998 36.5 26.9998Z" fill="black"/>
<path fill-rule="evenodd" clip-rule="evenodd" d="M29 34.2665C29 31.4292 33.9969 29.9998 36.5 29.9998C39.0031 29.9998 44 31.4292 44 34.2665V37.9998H29V34.2665ZM31 34.2665C31 34.1402 31.1683 33.5602 32.6408 32.8891C33.943 32.2955 35.5352 31.9998 36.5 31.9998C37.4648 31.9998 39.057 32.2955 40.3592 32.8891C41.8317 33.5602 42 34.1402 42 34.2665V35.9998H31V34.2665Z" fill="black"/>
</svg>

<svg
  xmlns="http://www.w3.org/2000/svg"
  width="24"
  height="24"
  viewBox="0 0 24 24"
  fill="none"
  stroke="currentColor"
  stroke-width="2"
  stroke-linecap="round"
  stroke-linejoin="round"
>
  <path d="M11.537 10.293a1 1 0 0 1 0 1.414L10.244 13h27.512l-1.293-1.293a1 1 0 0 1 1.414-1.414l2.121 2.121a2 2 0 0 1 0 2.829l-2.121 2.12a1 1 0 0 1-1.414-1.413l.95-.95H10.588l.95.95a1 1 0 0 1-1.415 1.414l-2.121-2.122a2 2 0 0 1 0-2.828l2.121-2.121a1 1 0 0 1 1.414 0" />
  <path
    fill-rule="evenodd"
    d="M15 25.5c0 1.934-1.566 3.5-3.5 3.5A3.5 3.5 0 0 1 8 25.5a3.5 3.5 0 0 1 3.5-3.5c1.934 0 3.5 1.566 3.5 3.5M11.5 27a1.499 1.499 0 1 0 0-3 1.5 1.5 0 1 0 0 3"
    clip-rule="evenodd"
  />
  <path
    fill-rule="evenodd"
    d="M4 34.267C4 31.429 8.997 30 11.5 30s7.5 1.43 7.5 4.267V38H4zm2 0c0-.127.168-.707 1.64-1.378 1.303-.594 2.895-.89 3.86-.89s2.557.296 3.86.89c1.472.671 1.64 1.251 1.64 1.377V36H6z"
    clip-rule="evenodd"
  />
  <path
    fill-rule="evenodd"
    d="M40 25.5c0 1.934-1.566 3.5-3.5 3.5a3.5 3.5 0 0 1-3.5-3.5c0-1.934 1.566-3.5 3.5-3.5s3.5 1.566 3.5 3.5M36.5 27a1.499 1.499 0 1 0 0-3 1.5 1.5 0 1 0 0 3"
    clip-rule="evenodd"
  />
  <path
    fill-rule="evenodd"
    d="M29 34.267C29 31.429 33.997 30 36.5 30s7.5 1.43 7.5 4.267V38H29zm2 0c0-.127.168-.707 1.64-1.378 1.303-.594 2.895-.89 3.86-.89s2.557.296 3.86.89c1.472.671 1.64 1.251 1.64 1.377V36H31z"
    clip-rule="evenodd"
  />
</svg>
